;FLAVOR:Marlin
;TIME:37965
;Filament used: 53.3684m
;Layer height: 0.28
;MINX:1.454
;MINY:35.7
;MINZ:0.28
;MAXX:227.054
;MAXY:199.3
;MAXZ:17.92
;TARGET_MACHINE.NAME:Creality Ender-3
;Generated with Cura_SteamEngine 5.7.0
M140 S60
M105
M190 S60
M104 S200
M105
M109 S200
M82 ;absolute extrusion mode
START_PRINT
G92 E0
G92 E0
G1 F2700 E-5
;LAYER_COUNT:64
;LAYER:0
M107
G0 F6000 X3.254 Y35.7 Z0.28
;TYPE:SKIRT
G1 F2700 E0
G1 F1200 X225.402 Y35.7 E10.34414
G1 X225.873 Y35.815 E10.36672
G1 X226.346 Y36.06 E10.39152
G1 X226.659 Y36.398 E10.41297
G1 X226.952 Y36.889 E10.4396
G1 X227.054 Y37.5 E10.46844
G1 X227.054 Y197.648 E17.9256
G1 X226.939 Y198.119 E17.94818
G1 X226.694 Y198.592 E17.97298
G1 X226.356 Y198.905 E17.99443
G1 X225.865 Y199.198 E18.02106
G1 X225.254 Y199.3 E18.0499
G1 X3.106 Y199.3 E28.39404
G1 X2.635 Y199.185 E28.41662
G1 X2.162 Y198.94 E28.44142
G1 X1.849 Y198.602 E28.46287
G1 X1.556 Y198.111 E28.4895
G1 X1.454 Y197.5 E28.51834
G1 X1.454 Y37.352 E35.9755
G1 X1.569 Y36.881 E35.99808
G1 X1.814 Y36.408 E36.02288
G1 X2.152 Y36.095 E36.04434
G1 X2.643 Y35.802 E36.07096
G1 X3.254 Y35.7 E36.0998
G0 F6000 X3.254 Y36.1
G1 F1200 X225.352 Y36.1 E46.44162
G1 X225.734 Y36.193 E46.45992
G1 X226.1 Y36.383 E46.47913
G1 X226.338 Y36.64 E46.49544
G1 X226.569 Y37.027 E46.51642
G1 X226.654 Y37.5 E46.5388
G1 X226.654 Y197.598 E53.99363
G1 X226.561 Y197.98 E54.01194
G1 X226.371 Y198.346 E54.03114
G1 X226.114 Y198.584 E54.04745
G1 X225.727 Y198.815 E54.06844
G1 X225.254 Y198.9 E54.09082
G1 X3.156 Y198.9 E64.43263
G1 X2.774 Y198.807 E64.45094
G1 X2.408 Y198.617 E64.47014
G1 X2.17 Y198.36 E64.48645
G1 X1.939 Y197.973 E64.50744
G1 X1.854 Y197.5 E64.52981
G1 X1.854 Y37.402 E71.98465
G1 X1.947 Y37.02 E72.00296
G1 X2.137 Y36.654 E72.02216
G1 X2.394 Y36.416 E72.03847
G1 X2.781 Y36.185 E72.05945
G1 X3.254 Y36.1 E72.08183
G0 F6000 X3.254 Y36.5
G1 F1200 X2.926 Y36.565 E72.0974
G1 X2.599 Y36.76 E72.11513
G1 X2.461 Y36.899 E72.12425
G1 X2.324 Y37.162 E72.13806
G1 X2.254 Y37.451 E72.15191
G1 X2.254 Y197.5 E79.60446
G1 X2.319 Y197.828 E79.62003
G1 X2.514 Y198.155 E79.63776
G1 X2.653 Y198.293 E79.64688
G1 X2.916 Y198.43 E79.66068
G1 X3.205 Y198.5 E79.67453
G1 X225.254 Y198.5 E90.01406
G1 X225.582 Y198.435 E90.02963
G1 X225.909 Y198.24 E90.04736
G1 X226.047 Y198.101 E90.05648
G1 X226.184 Y197.838 E90.07029
G1 X226.254 Y197.549 E90.08414
G1 X226.254 Y37.5 E97.53669
G1 X226.189 Y37.172 E97.55226
G1 X225.994 Y36.845 E97.56999
G1 X225.855 Y36.707 E97.57911
G1 X225.592 Y36.57 E97.59291
G1 X225.303 Y36.5 E97.60676
G1 X3.254 Y36.5 E107.94629
G0 F6000 X3.254 Y37.3
G1 F1200 X225.254 Y37.3 E118.28354
G1 X225.373 Y37.339 E118.28937
G1 X225.454 Y37.5 E118.29777
G1 X225.454 Y197.5 E125.74804
G1 X225.415 Y197.619 E125.75387
G1 X225.254 Y197.7 E125.76226
G1 X3.254 Y197.7 E136.09951
G1 X3.135 Y197.661 E136.10534
G1 X3.054 Y197.5 E136.11373
G1 X3.054 Y37.5 E143.564
G1 X3.093 Y37.381 E143.56983
G1 X3.254 Y37.3 E143.57823
G0 F6000 X3.074 Y36.943
G1 F1200 X3.254 Y36.9 E143.58684
G1 X225.254 Y36.9 E153.92409
G1 X225.498 Y36.959 E153.93578
G1 X225.65 Y37.05 E153.94403
G1 X225.811 Y37.32 E153.95867
G1 X225.854 Y37.5 E153.96729
G1 X225.854 Y197.5 E161.41756
G1 X225.795 Y197.744 E161.42925
G1 X225.704 Y197.896 E161.4375
G1 X225.434 Y198.057 E161.45213
G1 X225.254 Y198.1 E161.46075
G1 X3.254 Y198.1 E171.798
G1 X3.01 Y198.041 E171.80969
G1 X2.858 Y197.95 E171.81794
G1 X2.697 Y197.68 E171.83258
G1 X2.654 Y197.5 E171.84119
G1 X2.654 Y37.5 E179.29146
G1 X2.713 Y37.256 E179.30315
G1 X2.804 Y37.104 E179.3114
G1 X3.074 Y36.943 E179.32604
G1 F2700 E174.32604
;MESH:base_plate.stl
G0 F6000 X4.052 Y38.3
G0 X224.652 Y196.9
;TYPE:WALL-INNER
G1 F2700 E179.32604
G1 F1200 X224.652 Y38.1 E186.72043
G1 X3.852 Y38.1 E197.00181
G1 X3.852 Y196.9 E204.3962
G1 X224.652 Y196.9 E214.67757
G0 F6000 X225.052 Y197.3
;TYPE:WALL-OUTER
G1 F1200 X225.052 Y37.7 E222.10922
G1 X3.452 Y37.7 E232.42784
G1 X3.452 Y197.3 E239.85949
G1 X225.052 Y197.3 E250.17811
G0 F6000 X224.784 Y197.03
G0 X224.552 Y196.54
G0 X224.292 Y196.54
;TYPE:SKIN
G1 F1200 X4.212 Y196.54 E260.42596
G1 X4.212 Y38.46 E267.78682
G1 X224.292 Y38.46 E278.03467
G1 X224.292 Y196.54 E285.39554
G1 F2700 E280.39554
G0 F6000 X224.552 Y196.54
G0 X224.48 Y38.272
G0 X223.639 Y38.2
G0 X223.639 Y38.66
G1 F2700 E285.39554
G1 F1200 X224.092 Y39.113 E285.42537
G0 F6000 X224.092 Y39.679
G1 F1200 X223.074 Y38.66 E285.49244
G0 F6000 X222.508 Y38.66
G1 F1200 X224.092 Y40.244 E285.59675
G0 F6000 X224.092 Y40.81
G1 F1200 X221.942 Y38.66 E285.73833
G0 F6000 X221.377 Y38.66
G1 F1200 X224.092 Y41.376 E285.91715
G0 F6000 X224.092 Y41.941
G1 F1200 X220.811 Y38.66 E286.13321
G0 F6000 X220.245 Y38.66
G1 F1200 X224.092 Y42.507 E286.38654
G0 F6000 X224.092 Y43.073
G1 F1200 X219.68 Y38.66 E286.67711
G0 F6000 X219.114 Y38.66
G1 F1200 X224.092 Y43.638 E287.00492
G0 F6000 X224.092 Y44.204
G1 F1200 X218.548 Y38.66 E287.37
G0 F6000 X217.983 Y38.66
G1 F1200 X224.092 Y44.77 E287.77232
G0 F6000 X224.092 Y45.335
G1 F1200 X217.417 Y38.66 E288.21188
G0 F6000 X216.851 Y38.66
G1 F1200 X224.092 Y45.901 E288.68872
G0 F6000 X224.092 Y46.467
G1 F1200 X216.286 Y38.66 E289.20279
G0 F6000 X215.72 Y38.66
G1 F1200 X224.092 Y47.033 E289.75413
G0 F6000 X224.092 Y47.598
G1 F1200 X215.154 Y38.66 E290.34271
G0 F6000 X214.589 Y38.66
G1 F1200 X224.092 Y48.164 E290.96854
G0 F6000 X224.092 Y48.73
G1 F1200 X214.023 Y38.66 E291.63163
G0 F6000 X213.457 Y38.66
G1 F1200 X224.092 Y49.295 E292.33196
G0 F6000 X224.092 Y49.861
G1 F1200 X212.891 Y38.66 E293.06957
G0 F6000 X212.326 Y38.66
G1 F1200 X224.092 Y50.427 E293.84441
G0 F6000 X224.092 Y50.992
G1 F1200 X211.76 Y38.66 E294.65649
G0 F6000 X211.194 Y38.66
G1 F1200 X224.092 Y51.558 E295.50585
G0 F6000 X224.092 Y52.124
G1 F1200 X210.629 Y38.66 E296.39244
G0 F6000 X210.063 Y38.66
G1 F1200 X224.092 Y52.689 E297.31628
G0 F6000 X224.092 Y53.255
G1 F1200 X209.497 Y38.66 E298.27738
G0 F6000 X208.932 Y38.66
G1 F1200 X224.092 Y53.821 E299.27573
G0 F6000 X224.092 Y54.386
G1 F1200 X208.366 Y38.66 E300.31131
G0 F6000 X207.8 Y38.66
G1 F1200 X224.092 Y54.952 E301.38417
G0 F6000 X224.092 Y55.518
G1 F1200 X207.235 Y38.66 E302.49426
G0 F6000 X206.669 Y38.66
G1 F1200 X224.092 Y56.083 E303.6416
G0 F6000 X224.092 Y56.649
G1 F1200 X206.103 Y38.66 E304.8262
G0 F6000 X205.538 Y38.66
G1 F1200 X224.092 Y57.215 E306.04805
G0 F6000 X224.092 Y57.781
G1 F1200 X204.972 Y38.66 E307.30717
G0 F6000 X204.406 Y38.66
G1 F1200 X224.092 Y58.346 E308.60352
G0 F6000 X224.092 Y58.912
G1 F1200 X203.841 Y38.66 E309.93712
G0 F6000 X203.275 Y38.66
G1 F1200 X224.092 Y59.478 E311.30799
G0 F6000 X224.092 Y60.043
G1 F1200 X202.709 Y38.66 E312.71609
G0 F6000 X202.143 Y38.66
G1 F1200 X224.092 Y60.609 E314.16147
G0 F6000 X224.092 Y61.175
G1 F1200 X201.578 Y38.66 E315.64409
G0 F6000 X201.012 Y38.66
G1 F1200 X224.092 Y61.74 E317.16395
G0 F6000 X224.092 Y62.306
G1 F1200 X200.446 Y38.66 E318.72108
G0 F6000 X199.881 Y38.66
G1 F1200 X224.092 Y62.872 E320.31545
G0 F6000 X224.092 Y63.437
G1 F1200 X199.315 Y38.66 E321.94706
G0 F6000 X198.749 Y38.66
G1 F1200 X224.092 Y64.003 E323.61594
G0 F6000 X224.092 Y64.569
G1 F1200 X198.184 Y38.66 E325.32205
G0 F6000 X197.618 Y38.66
G1 F1200 X224.092 Y65.134 E327.06541
G0 F6000 X224.092 Y65.7
G1 F1200 X197.052 Y38.66 E328.84604
G0 F6000 X196.487 Y38.66
G1 F1200 X224.092 Y66.266 E330.66391
G0 F6000 X224.092 Y66.831
G1 F1200 X195.921 Y38.66 E332.51902
G0 F6000 X195.355 Y38.66
G1 F1200 X224.092 Y67.397 E334.4114
G0 F6000 X224.092 Y67.963
G1 F1200 X194.79 Y38.66 E336.34102
G0 F6000 X194.224 Y38.66
G1 F1200 X224.092 Y68.529 E338.30791
G0 F6000 X224.092 Y69.094
G1 F1200 X193.658 Y38.66 E340.31204
G0 F6000 X193.092 Y38.66
G1 F1200 X224.092 Y69.66 E342.35345
G0 F6000 X224.092 Y70.226
G1 F1200 X192.527 Y38.66 E344.43209
G0 F6000 X191.961 Y38.66
G1 F1200 X224.092 Y70.791 E346.54797
G0 F6000 X224.092 Y71.357
G1 F1200 X191.395 Y38.66 E348.70112
G0 F6000 X190.83 Y38.66
G1 F1200 X224.092 Y71.923 E350.89152
G0 F6000 X224.092 Y72.488
G1 F1200 X190.264 Y38.66 E353.11915
G0 F6000 X189.698 Y38.66
G1 F1200 X224.092 Y73.054 E355.38405
G0 F6000 X224.092 Y73.62
G1 F1200 X189.133 Y38.66 E357.68619
G0 F6000 X188.567 Y38.66
G1 F1200 X224.092 Y74.185 E360.02557
G0 F6000 X224.092 Y74.751
G1 F1200 X188.001 Y38.66 E362.40223
G0 F6000 X187.436 Y38.66
G1 F1200 X224.092 Y75.317 E364.81612
G0 F6000 X224.092 Y75.882
G1 F1200 X186.87 Y38.66 E367.26725
G0 F6000 X186.304 Y38.66
G1 F1200 X224.092 Y76.448 E369.75566
G0 F6000 X224.092 Y77.014
G1 F1200 X185.739 Y38.66 E372.2813
G0 F6000 X185.173 Y38.66
G1 F1200 X224.092 Y77.58 E374.84422
G0 F6000 X224.092 Y78.145
G1 F1200 X184.607 Y38.66 E377.44437
G0 F6000 X184.042 Y38.66
G1 F1200 X224.092 Y78.711 E380.08177
G0 F6000 X224.092 Y79.277
G1 F1200 X183.476 Y38.66 E382.75643
G0 F6000 X182.91 Y38.66
G1 F1200 X224.092 Y79.842 E385.46834
G0 F6000 X224.092 Y80.408
G1 F1200 X182.344 Y38.66 E388.21751
G0 F6000 X181.779 Y38.66
G1 F1200 X224.092 Y80.974 E391.00393
G0 F6000 X224.092 Y81.539
G1 F1200 X181.213 Y38.66 E393.82759
G0 F6000 X180.647 Y38.66
G1 F1200 X224.092 Y82.105 E396.68851
G0 F6000 X224.092 Y82.671
G1 F1200 X180.082 Y38.66 E399.58668
G0 F6000 X179.516 Y38.66
G1 F1200 X224.092 Y83.236 E402.52209
G0 F6000 X224.092 Y83.802
G1 F1200 X178.95 Y38.66 E405.49476
G0 F6000 X178.385 Y38.66
G1 F1200 X224.092 Y84.368 E408.50468
G0 F6000 X224.092 Y84.933
G1 F1200 X177.819 Y38.66 E411.55184
G0 F6000 X177.253 Y38.66
G1 F1200 X224.092 Y85.499 E414.63626
G0 F6000 X224.092 Y86.065
G1 F1200 X176.688 Y38.66 E417.75793
G0 F6000 X176.122 Y38.66
G1 F1200 X224.092 Y86.63 E420.91684
G0 F6000 X224.092 Y87.196
G1 F1200 X175.556 Y38.66 E424.11302
G0 F6000 X174.991 Y38.66
G1 F1200 X224.092 Y87.762 E427.34643
G0 F6000 X224.092 Y88.328
G1 F1200 X174.425 Y38.66 E430.61712
G0 F6000 X173.859 Y38.66
G1 F1200 X224.092 Y88.893 E433.92505
G0 F6000 X224.092 Y89.459
G1 F1200 X173.293 Y38.66 E437.27025
G0 F6000 X172.728 Y38.66
G1 F1200 X224.092 Y90.025 E440.65269
G0 F6000 X224.092 Y90.59
G1 F1200 X172.162 Y38.66 E444.07237
G0 F6000 X171.596 Y38.66
G1 F1200 X224.092 Y91.156 E447.52932
G0 F6000 X224.092 Y91.722
G1 F1200 X171.031 Y38.66 E451.02351
G0 F6000 X170.465 Y38.66
G1 F1200 X224.092 Y92.287 E454.55494
G0 F6000 X224.092 Y92.853
G1 F1200 X169.899 Y38.66 E458.12365
G0 F6000 X169.334 Y38.66
G1 F1200 X224.092 Y93.419 E461.72959
G0 F6000 X224.092 Y93.984
G1 F1200 X168.768 Y38.66 E465.37277
G0 F6000 X168.202 Y38.66
G1 F1200 X224.092 Y94.55 E469.05322
G0 F6000 X224.092 Y95.116
G1 F1200 X167.637 Y38.66 E472.77091
G0 F6000 X167.071 Y38.66
G1 F1200 X224.092 Y95.681 E476.52584
G0 F6000 X224.092 Y96.247
G1 F1200 X166.505 Y38.66 E480.31804
G0 F6000 X165.94 Y38.66
G1 F1200 X224.092 Y96.813 E484.14748
G0 F6000 X224.092 Y97.379
G1 F1200 X165.374 Y38.66 E488.0142
G0 F6000 X164.808 Y38.66
G1 F1200 X224.092 Y97.944 E491.91815
G0 F6000 X224.092 Y98.51
G1 F1200 X164.243 Y38.66 E495.85934
G0 F6000 X163.677 Y38.66
G1 F1200 X224.092 Y99.076 E499.8378
G0 F6000 X224.092 Y99.641
G1 F1200 X163.111 Y38.66 E503.85351
G0 F6000 X162.545 Y38.66
G1 F1200 X224.092 Y100.207 E507.90648
G0 F6000 X224.092 Y100.773
G1 F1200 X161.98 Y38.66 E511.9967
G0 F6000 X161.414 Y38.66
G1 F1200 X224.092 Y101.338 E516.12415
G0 F6000 X224.092 Y101.904
G1 F1200 X160.848 Y38.66 E520.28888
G0 F6000 X160.283 Y38.66
G1 F1200 X224.092 Y102.47 E524.49084
G0 F6000 X224.092 Y103.035
G1 F1200 X159.717 Y38.66 E528.73004
G0 F6000 X159.151 Y38.66
G1 F1200 X224.092 Y103.601 E533.00652
G0 F6000 X224.092 Y104.167
G1 F1200 X158.586 Y38.66 E537.32023
G0 F6000 X158.02 Y38.66
G1 F1200 X224.092 Y104.732 E541.67119
G0 F6000 X224.092 Y105.298
G1 F1200 X157.454 Y38.66 E546.05941
G0 F6000 X156.889 Y38.66
G1 F1200 X224.092 Y105.864 E550.48488
G0 F6000 X224.092 Y106.429
G1 F1200 X156.323 Y38.66 E554.94758
G0 F6000 X155.757 Y38.66
G1 F1200 X224.092 Y106.995 E559.44756
G0 F6000 X224.092 Y107.561
G1 F1200 X155.192 Y38.66 E563.98478
G0 F6000 X154.626 Y38.66
G1 F1200 X224.092 Y108.127 E568.55926
G0 F6000 X224.092 Y108.692
G1 F1200 X154.06 Y38.66 E573.17099
G0 F6000 X153.494 Y38.66
G1 F1200 X224.092 Y109.258 E577.81999
G0 F6000 X224.092 Y109.824
G1 F1200 X152.929 Y38.66 E582.50623
G0 F6000 X152.363 Y38.66
G1 F1200 X224.092 Y110.389 E587.22971
G0 F6000 X224.092 Y110.955
G1 F1200 X151.797 Y38.66 E591.99045
G0 F6000 X151.232 Y38.66
G1 F1200 X224.092 Y111.521 E596.78844
G0 F6000 X224.092 Y112.086
G1 F1200 X150.666 Y38.66 E601.62367
G0 F6000 X150.1 Y38.66
G1 F1200 X224.092 Y112.652 E606.49617
G0 F6000 X224.092 Y113.218
G1 F1200 X149.535 Y38.66 E611.40591
G0 F6000 X148.969 Y38.66
G1 F1200 X224.092 Y113.783 E616.35289
G0 F6000 X224.092 Y114.349
G1 F1200 X148.403 Y38.66 E621.33714
G0 F6000 X147.838 Y38.66
G1 F1200 X224.092 Y114.915 E626.35863
G0 F6000 X224.092 Y115.48
G1 F1200 X147.272 Y38.66 E631.41735
G0 F6000 X146.706 Y38.66
G1 F1200 X224.092 Y116.046 E636.51335
G0 F6000 X224.092 Y116.612
G1 F1200 X146.141 Y38.66 E641.64659
G0 F6000 X145.575 Y38.66
G1 F1200 X224.092 Y117.177 E646.81707
G0 F6000 X224.092 Y117.743
G1 F1200 X145.009 Y38.66 E652.02482
G0 F6000 X144.444 Y38.66
G1 F1200 X224.092 Y118.309 E657.26981
G0 F6000 X224.092 Y118.875
G1 F1200 X143.878 Y38.66 E662.55207
G0 F6000 X143.312 Y38.66
G1 F1200 X224.092 Y119.44 E667.87157
G0 F6000 X224.092 Y120.006
G1 F1200 X142.746 Y38.66 E673.22835
G0 F6000 X142.181 Y38.66
G1 F1200 X224.092 Y120.572 E678.62236
G0 F6000 X224.092 Y121.137
G1 F1200 X141.615 Y38.66 E684.05361
G0 F6000 X141.049 Y38.66
G1 F1200 X224.092 Y121.703 E689.52213
G0 F6000 X224.092 Y122.269
G1 F1200 X140.484 Y38.66 E695.0279
G0 F6000 X139.918 Y38.66
G1 F1200 X224.092 Y122.834 E700.5709
G0 F6000 X224.092 Y123.4
G1 F1200 X139.352 Y38.66 E706.15117
G0 F6000 X138.787 Y38.66
G1 F1200 X224.092 Y123.966 E711.76869
G0 F6000 X224.092 Y124.531
G1 F1200 X138.221 Y38.66 E717.42344
G0 F6000 X137.655 Y38.66
G1 F1200 X224.092 Y125.097 E723.11546
G0 F6000 X224.092 Y125.663
G1 F1200 X137.09 Y38.66 E728.84472
G0 F6000 X136.524 Y38.66
G1 F1200 X224.092 Y126.228 E734.61123
G0 F6000 X224.092 Y126.794
G1 F1200 X135.958 Y38.66 E740.415
G0 F6000 X135.393 Y38.66
G1 F1200 X224.092 Y127.36 E746.25601
G0 F6000 X224.092 Y127.926
G1 F1200 X134.827 Y38.66 E752.1343
G0 F6000 X134.261 Y38.66
G1 F1200 X224.092 Y128.491 E758.04982
G0 F6000 X224.092 Y129.057
G1 F1200 X133.696 Y38.66 E764.00259
G0 F6000 X133.13 Y38.66
G1 F1200 X224.092 Y129.623 E769.99262
G0 F6000 X224.092 Y130.188
G1 F1200 X132.564 Y38.66 E776.0199
G0 F6000 X131.998 Y38.66
G1 F1200 X224.092 Y130.754 E782.08445
G0 F6000 X224.092 Y131.32
G1 F1200 X131.433 Y38.66 E788.18623
G0 F6000 X130.867 Y38.66
G1 F1200 X224.092 Y131.885 E794.32526
G0 F6000 X224.092 Y132.451
G1 F1200 X130.301 Y38.66 E800.50156
G0 F6000 X129.736 Y38.66
G1 F1200 X224.092 Y133.017 E806.71509
G0 F6000 X224.092 Y133.582
G1 F1200 X129.17 Y38.66 E812.96587
G0 F6000 X128.604 Y38.66
G1 F1200 X224.092 Y134.148 E819.25392
G0 F6000 X224.092 Y134.714
G1 F1200 X128.039 Y38.66 E825.5792
G0 F6000 X127.473 Y38.66
G1 F1200 X224.092 Y135.279 E831.94173
G0 F6000 X224.092 Y135.845
G1 F1200 X126.907 Y38.66 E838.34153
G0 F6000 X126.342 Y38.66
G1 F1200 X224.092 Y136.411 E844.77857
G0 F6000 X224.092 Y136.976
G1 F1200 X125.776 Y38.66 E851.25284
G0 F6000 X125.21 Y38.66
G1 F1200 X224.092 Y137.542 E857.76439
G0 F6000 X224.092 Y138.108
G1 F1200 X124.645 Y38.66 E864.31318
G0 F6000 X124.079 Y38.66
G1 F1200 X224.092 Y138.674 E870.89924
G0 F6000 X224.092 Y139.239
G1 F1200 X123.513 Y38.66 E877.52254
G0 F6000 X122.947 Y38.66
G1 F1200 X224.092 Y139.805 E884.18311
G0 F6000 X224.092 Y140.371
G1 F1200 X122.382 Y38.66 E890.88092
G0 F6000 X121.816 Y38.66
G1 F1200 X224.092 Y140.936 E897.61597
G0 F6000 X224.092 Y141.502
G1 F1200 X121.25 Y38.66 E904.38829
G0 F6000 X120.685 Y38.66
G1 F1200 X224.092 Y142.068 E911.19785
G0 F6000 X224.092 Y142.633
G1 F1200 X120.119 Y38.66 E918.04465
G0 F6000 X119.553 Y38.66
G1 F1200 X224.092 Y143.199 E924.92872
G0 F6000 X224.092 Y143.765
G1 F1200 X118.988 Y38.66 E931.85003
G0 F6000 X118.422 Y38.66
G1 F1200 X224.092 Y144.33 E938.80858
G0 F6000 X224.092 Y144.896
G1 F1200 X117.856 Y38.66 E945.8044
G0 F6000 X117.291 Y38.66
G1 F1200 X224.092 Y145.462 E952.83746
